img/discount/B.svg

<svg width="64" height="84" viewBox="0 0 64 84" fill="none" xmlns="http://www.w3.org/2000/svg">
<path opacity="0.2" d="M0.0609814 78.6564L0 4.95385L0.0609814 78.6564ZM0.101636 0H27.2485C33.0519 0 37.9 0.441026 41.7723 1.33333C45.6446 2.22564 48.7546 3.51795 51.1024 5.22051C53.4502 6.92308 55.1272 8.98462 56.1131 11.4256C57.0989 13.8564 57.597 16.5846 57.6071 19.6205C57.6071 22.2359 57.1904 24.6256 56.3468 26.7897C55.5033 28.9538 54.3344 30.8513 52.8302 32.5026C51.326 34.1436 49.5271 35.5179 47.4232 36.6256C45.3194 37.7333 43.0326 38.5538 40.5628 39.0974C44.1506 39.4667 47.3927 40.1949 50.2995 41.2718C53.2063 42.3487 55.6659 43.7538 57.6884 45.4769C59.711 47.2 61.266 49.241 62.3535 51.6103C63.4512 53.9795 64 56.6154 64 59.5282C64 63.1487 63.4004 66.4615 62.1909 69.4769C60.9713 72.4923 59.0707 75.0667 56.479 77.2103C53.8873 79.3539 50.5536 81.0154 46.478 82.2051C42.4024 83.3949 37.4731 83.9897 31.7103 84C27.0961 84 22.5021 83.9487 17.9285 83.8256C13.3549 83.7026 9.12689 83.641 5.26473 83.6513L0.0711449 83.6615L0.101636 0ZM44.9331 20.2564C44.9331 17.8051 44.5673 15.6615 43.8456 13.8359C43.124 12.0103 41.9552 10.4821 40.3494 9.25128C38.7435 8.03077 36.66 7.11795 34.1089 6.51282C31.5477 5.91795 28.4275 5.61026 24.7178 5.62051L11.932 5.63077L11.9625 37.241L25.4902 37.2308C29.3219 37.2308 32.4929 36.8205 35.0033 36.0103C37.5137 35.2 39.5058 34.0513 40.9592 32.5744C42.4227 31.0974 43.4493 29.3231 44.0387 27.241C44.6384 25.159 44.9331 22.8308 44.9331 20.2564ZM51.2041 59.7846C51.2041 56.8718 50.7365 54.359 49.8117 52.2462C48.8766 50.1231 47.4334 48.3692 45.482 46.9846C43.5204 45.5897 40.9998 44.5538 37.9101 43.8769C34.8204 43.1897 31.1107 42.8513 26.7912 42.8615L11.9625 42.8718L11.993 78.041C13.8834 78.1231 15.8653 78.1846 17.9285 78.2256C19.697 78.3077 21.6586 78.359 23.8031 78.3795C25.9476 78.4 28.0616 78.4103 30.1655 78.4103C34.0378 78.4103 37.3105 77.9692 39.9835 77.0872C42.6565 76.2154 44.8315 74.9744 46.4983 73.3744C48.1652 71.7744 49.3645 69.8359 50.1064 67.5385C50.8382 65.2308 51.2142 62.6462 51.2041 59.7846Z" fill="#FFD32E"/>
</svg>

<svg width="64" height="84" fill="none" xmlns="http://www.w3.org/2000/svg"><path opacity=".2" d="M.061 78.656L0 4.954l.061 73.702zM.101 0H27.25c5.801 0 10.65.441 14.522 1.333 3.873.893 6.983 2.185 9.33 3.888 2.348 1.702 4.025 3.764 5.011 6.205.986 2.43 1.484 5.159 1.494 8.194 0 2.616-.417 5.006-1.26 7.17-.844 2.164-2.013 4.061-3.517 5.713-1.504 1.64-3.303 3.015-5.407 4.123-2.104 1.107-4.39 1.928-6.86 2.471 3.588.37 6.83 1.098 9.736 2.175 2.907 1.077 5.367 2.482 7.39 4.205 2.022 1.723 3.577 3.764 4.664 6.133C63.451 53.98 64 56.615 64 59.528c0 3.62-.6 6.934-1.81 9.949-1.219 3.015-3.12 5.59-5.711 7.733-2.592 2.144-5.925 3.805-10.001 4.995S37.473 83.99 31.71 84c-4.614 0-9.208-.051-13.782-.174a432.196 432.196 0 00-12.663-.175l-5.194.01L.101 0zm44.832 20.256c0-2.45-.366-4.595-1.087-6.42-.722-1.826-1.89-3.354-3.497-4.585-1.605-1.22-3.689-2.133-6.24-2.738-2.561-.595-5.682-.903-9.391-.892l-12.786.01.03 31.61 13.528-.01c3.832 0 7.003-.41 9.513-1.22 2.51-.811 4.503-1.96 5.956-3.437 1.464-1.477 2.49-3.25 3.08-5.333.6-2.082.894-4.41.894-6.985zm6.271 39.529c0-2.913-.468-5.426-1.392-7.539-.935-2.123-2.379-3.877-4.33-5.261C43.52 45.59 41 44.554 37.91 43.877c-3.09-.687-6.8-1.026-11.119-1.016l-14.829.01.031 35.17c1.89.082 3.872.144 5.935.185 1.769.082 3.73.133 5.875.153 2.145.021 4.259.031 6.363.031 3.872 0 7.144-.44 9.817-1.323 2.674-.872 4.849-2.113 6.515-3.713 1.667-1.6 2.867-3.538 3.608-5.835.732-2.308 1.108-4.893 1.098-7.754z" fill="#FFD32E"/></svg>
